X: 94
%
U:~=!turn!
U:t=!tenuto!
T: Castle Spynie
C:James Scott Skinner
O:Scotland
B:Keith Norman MacDonald : "The Skye collection of the best reels & strathspeys extant" : 1887
Z:Ralph Palmer
R:Strathspey
M:C
L:1/8
K:D
B | (tA>.F)(tG>.E) F<A d>e | (tf>.e)(td>.f) e<TEE>B | (tA>.F)(tG>.E) F<A (d>e) | xxxx d2 d & (tf>.d)(te>.c) dDD:|
.f/2.g/2 | (ta>.f) (tg>.e) f<a d.c/2.d/2 | e>cd>B c<e A.f/2.g/2 | (ta>.f)(tg>.e) f<d B>g | (tf>.d){/d}(te>.c) d2- [Fd].f/2.g/2 |
a>fg>e f<a .d.c/2.d/2 | e>cd>B c<e Af/2g/2 | (3agf (3edc (3B^c^d (3efg | (3fed (3edc {/c}d2 d |]


